resume.svg

<svg xmlns="http://www.w3.org/2000/svg" height="48" width="48"><path d="M15.95 35.5h16.1v-3h-16.1Zm0-8.5h16.1v-3h-16.1ZM11 44q-1.2 0-2.1-.9Q8 42.2 8 41V7q0-1.2.9-2.1Q9.8 4 11 4h18.05L40 14.95V41q0 1.2-.9 2.1-.9.9-2.1.9Zm16.55-27.7V7H11v34h26V16.3ZM11 7v9.3V7v34V7Z"/></svg>

<?xml version="1.0" encoding="utf-8"?>
<!-- Generator: Adobe Illustrator 27.3.0, SVG Export Plug-In . SVG Version: 6.00 Build 0)  -->
<svg version="1.1" id="Layer_1" xmlns="http://www.w3.org/2000/svg" xmlns:xlink="http://www.w3.org/1999/xlink" x="0px" y="0px"
	 viewBox="0 0 48 48" style="enable-background:new 0 0 48 48;" xml:space="preserve">
<style type="text/css">
	.st0{fill:#FFFFFF;}
</style>
<path class="st0" d="M15.9,35.5H32v-3H15.9L15.9,35.5z M15.9,27H32v-3H15.9L15.9,27z M11,44c-0.8,0-1.5-0.3-2.1-0.9
	C8.3,42.5,8,41.8,8,41V7c0-0.8,0.3-1.5,0.9-2.1C9.5,4.3,10.2,4,11,4h18l11,10.9v26c0,0.8-0.3,1.5-0.9,2.1C38.5,43.7,37.8,44,37,44
	H11z M27.5,16.3V7H11v34h26V16.3H27.5z M11,7v9.3V7v34V7z"/>
</svg>
